X:1
T:Title
%%score { ( 1 3 ) | ( 2 4 ) }
L:1/8
Q:1/4=94
M:4/4
K:D
V:1 treble nm="Grand Piano"
V:3 treble 
V:2 bass 
V:4 bass 
V:1
 FFED D C3 | [CEG][CEG][DF][CE] F4 | DFED C E3 | z4 A2 A2 | F2 F2 F2 F2 | G8 | E2 E2 E2 E2 | F8 | %8
w: Emory~L.~Coblentz * * * * *||||||||
 FFFF E2 D2 | z2 G6 | [DF]2 [DG]2 [DF]2 [CE]2 | [A,D]8 |] %12
w: ||||
V:2
 [D,A,D][D,A,D][D,G,C][D,F,A,] [E,G,A,] [E,G,A,]3 | [A,,A,][A,,A,][A,,A,][A,,A,] [D,A,D]4 | %2
 [D,F,][D,A,D][D,G,C][D,F,A,] [E,A,] [E,A,C]3 | [E,^G,D][E,G,D][E,G,D][E,B,D] [B,,E,A,C]4 | %4
 z A, z A, z A, z A, | z A, z A, z A, z A, | z A, z A, z A, z A, | z A, z A, z A, z A, | %8
 [D,A,D][D,A,D][D,A,D][D,A,D] [D,G,D]2 [D,F,A,]2 | G,,2 G,2 G,,2 [G,B,D]2 | %10
 [A,,A,]2 [A,,A,]2 [A,,A,]2 [A,,G,]2 | [D,F,]8 |] %12
V:3
 x8 | x8 | x8 | FEF^G z B z G | z D z D z D z D | z [CE] z [CE] z [CE] z [CE] | z C z C z C z C | %7
 z D z D z D z D | x8 | [B,D]2 [B,D]2 z BAG | x8 | x8 |] %12
V:4
 x8 | x8 | x8 | x8 | D,2 A,,2 D,2 A,,2 | E,2 A,,2 E,2 A,,2 | C,2 A,,2 C,2 A,,2 | %7
 D,2 A,,2 D,2 A,,2 | x8 | x8 | x8 | x8 |] %12

